packages/icons/svgs/duotone/Source=drops.svg

<svg width="24" height="24" viewBox="0 0 24 24" fill="none" xmlns="http://www.w3.org/2000/svg">
<path fill-rule="evenodd" clip-rule="evenodd" d="M12.7071 8.29289L12 9L11.2929 8.29289C11.6834 7.90237 12.3166 7.90237 12.7071 8.29289ZM12 10.4554C11.9864 10.4704 11.9726 10.4855 11.9587 10.5008C11.5023 11.0028 10.8962 11.7 10.2926 12.4847C9.6863 13.2729 9.09832 14.129 8.66617 14.9501C8.22208 15.7939 8 16.4945 8 17C8 19.546 10.0448 21 12 21C13.9552 21 16 19.546 16 17C16 16.4945 15.7779 15.7939 15.3338 14.9501C14.9017 14.129 14.3137 13.2729 13.7074 12.4847C13.1038 11.7 12.4977 11.0028 12.0413 10.5008C12.0274 10.4855 12.0136 10.4704 12 10.4554ZM11.2929 8.29289C11.293 8.29275 11.2929 8.29289 12 9C12.7071 8.29289 12.707 8.29275 12.7071 8.29289L12.7124 8.29821L12.7248 8.31074L12.7702 8.35681C12.8093 8.39665 12.8656 8.45448 12.9366 8.52858C13.0787 8.67673 13.2801 8.89028 13.5212 9.15545C14.0023 9.68468 14.6462 10.425 15.2926 11.2653C15.9363 12.1021 16.5983 13.0585 17.1037 14.0186C17.5971 14.9561 18 16.0055 18 17C18 20.854 14.8448 23 12 23C9.15521 23 6 20.854 6 17C6 16.0055 6.40292 14.9561 6.89633 14.0186C7.40168 13.0585 8.0637 12.1021 8.70738 11.2653C9.35377 10.425 9.99769 9.68468 10.4788 9.15545C10.7199 8.89028 10.9213 8.67673 11.0634 8.52858C11.1344 8.45448 11.1907 8.39665 11.2298 8.35681L11.2752 8.31074L11.2876 8.29821L11.2929 8.29289Z" fill="black" style="fill:black;fill-opacity:1;"/>
<g opacity="0.5">
<path fill-rule="evenodd" clip-rule="evenodd" d="M20.7186 1.30458L20 2L19.2814 1.30458C19.4698 1.10991 19.7291 1 20 1C20.2709 1 20.5302 1.10991 20.7186 1.30458ZM20 3.50289C19.7855 3.758 19.544 4.05813 19.3036 4.38273C18.9471 4.86394 18.6079 5.37909 18.3617 5.8674C18.1053 6.37593 18 6.75823 18 7C18 8.26214 18.9626 9 20 9C21.0374 9 22 8.26214 22 7C22 6.75823 21.8947 6.37593 21.6383 5.8674C21.3921 5.37909 21.0529 4.86394 20.6964 4.38273C20.456 4.05813 20.2145 3.758 20 3.50289ZM20 2C19.2814 1.30458 19.2815 1.30445 19.2814 1.30458L19.28 1.30601L19.2775 1.30858L19.2694 1.31707L19.2407 1.34715C19.2163 1.37289 19.1815 1.40987 19.1378 1.45702C19.0504 1.55127 18.9271 1.68651 18.7798 1.85426C18.4862 2.18865 18.0925 2.6576 17.6964 3.19227C17.3029 3.72356 16.8921 4.33966 16.5758 4.96697C16.2697 5.57407 16 6.29177 16 7C16 9.53786 18.0374 11 20 11C21.9626 11 24 9.53786 24 7C24 6.29177 23.7303 5.57407 23.4242 4.96697C23.1079 4.33966 22.6971 3.72356 22.3036 3.19227C21.9075 2.6576 21.5138 2.18865 21.2202 1.85426C21.0729 1.68651 20.9496 1.55127 20.8622 1.45702C20.8185 1.40987 20.7837 1.37289 20.7593 1.34715L20.7306 1.31707L20.7225 1.30858L20.72 1.30601L20.7186 1.30458C20.7185 1.30445 20.7186 1.30458 20 2Z" fill="black" style="fill:black;fill-opacity:1;"/>
<path fill-rule="evenodd" clip-rule="evenodd" d="M4.7186 1.30458L4 2L3.2814 1.30458C3.46979 1.10991 3.7291 1 4 1C4.2709 1 4.53021 1.10991 4.7186 1.30458ZM4 3.50289C3.78553 3.758 3.544 4.05813 3.30356 4.38273C2.94711 4.86394 2.60788 5.37909 2.36167 5.8674C2.10527 6.37593 2 6.75823 2 7C2 8.26214 2.96264 9 4 9C5.03736 9 6 8.26214 6 7C6 6.75823 5.89473 6.37593 5.63833 5.8674C5.39212 5.37909 5.05289 4.86394 4.69644 4.38273C4.456 4.05813 4.21447 3.758 4 3.50289ZM4 2C3.2814 1.30458 3.28152 1.30445 3.2814 1.30458L3.28001 1.30601L3.27754 1.30858L3.26938 1.31707L3.24072 1.34715C3.21631 1.37289 3.1815 1.40987 3.13778 1.45702C3.0504 1.55127 2.9271 1.68651 2.77981 1.85426C2.4862 2.18865 2.09249 2.6576 1.69644 3.19227C1.30289 3.72356 0.892123 4.33966 0.575829 4.96697C0.26973 5.57407 0 6.29177 0 7C0 9.53786 2.03736 11 4 11C5.96264 11 8 9.53786 8 7C8 6.29177 7.73027 5.57407 7.42417 4.96697C7.10788 4.33966 6.69711 3.72356 6.30356 3.19227C5.90751 2.6576 5.5138 2.18865 5.22019 1.85426C5.0729 1.68651 4.9496 1.55127 4.86222 1.45702C4.8185 1.40987 4.78369 1.37289 4.75928 1.34715L4.73062 1.31707L4.72246 1.30858L4.71999 1.30601L4.7186 1.30458C4.71848 1.30445 4.7186 1.30458 4 2Z" fill="black" style="fill:black;fill-opacity:1;"/>
</g>
</svg>

<svg xmlns="http://www.w3.org/2000/svg" width="24" height="24" viewBox="0 0 24 24"><path fill-rule="evenodd" d="M12.707 8.293 12 9l-.707-.707a1 1 0 0 1 1.414 0M12 10.455l-.041.046a32 32 0 0 0-1.666 1.984c-.607.788-1.195 1.644-1.627 2.465C8.222 15.794 8 16.494 8 17c0 2.546 2.045 4 4 4s4-1.454 4-4c0-.506-.222-1.206-.666-2.05-.432-.821-1.02-1.677-1.627-2.465a32 32 0 0 0-1.666-1.984zm-.707-2.162L12 9l.707-.707.005.005.013.013.045.046q.06.06.167.172a34 34 0 0 1 2.356 2.737c.643.836 1.305 1.793 1.81 2.753.494.937.897 1.987.897 2.981 0 3.854-3.155 6-6 6s-6-2.146-6-6c0-.994.403-2.044.896-2.981.506-.96 1.168-1.917 1.811-2.754a34 34 0 0 1 2.523-2.908l.045-.046.013-.013z" clip-rule="evenodd"/><path fill-rule="evenodd" d="M20.719 1.305 20 2l-.719-.695a1 1 0 0 1 1.438 0M20 3.503c-.215.255-.456.555-.696.88-.357.48-.696.996-.942 1.484C18.105 6.376 18 6.758 18 7c0 1.262.963 2 2 2s2-.738 2-2c0-.242-.105-.624-.362-1.133a10.6 10.6 0 0 0-.942-1.484c-.24-.325-.482-.625-.696-.88M20 2c-.719-.695-.718-.696-.719-.695l-.001.001-.003.003-.008.008-.028.03-.103.11a21 21 0 0 0-1.441 1.735 12.6 12.6 0 0 0-1.121 1.775C16.27 5.574 16 6.292 16 7c0 2.538 2.037 4 4 4s4-1.462 4-4c0-.708-.27-1.426-.576-2.033a12.6 12.6 0 0 0-1.12-1.775 21 21 0 0 0-1.545-1.845l-.028-.03-.009-.008-.002-.003-.001-.001zM4.719 1.305 4 2l-.719-.695a1 1 0 0 1 1.438 0M4 3.503a18 18 0 0 0-.696.88c-.357.48-.696.996-.942 1.484C2.105 6.376 2 6.758 2 7c0 1.262.963 2 2 2s2-.738 2-2c0-.242-.105-.624-.362-1.133a11 11 0 0 0-.942-1.484A18 18 0 0 0 4 3.503M4 2c-.719-.695-.718-.696-.719-.695l-.001.001-.002.003-.009.008-.028.03-.103.11a21 21 0 0 0-1.441 1.735A12.6 12.6 0 0 0 .575 4.967C.27 5.574 0 6.292 0 7c0 2.538 2.037 4 4 4s4-1.462 4-4c0-.708-.27-1.426-.576-2.033a12.6 12.6 0 0 0-1.12-1.775 21 21 0 0 0-1.545-1.845l-.028-.03-.009-.008-.002-.003-.001-.001z" clip-rule="evenodd" opacity=".5"/></svg>
